T: Will's Way
M: 4/4
L: 1/8
K: Dmix
DEFG A2 A2 | BA B2 A4 | DEFG A2 B2 | c2 B2 B2 A2 |
DEFG A2 A2 | BA B2 A4 | DEFG F2 E2 | D4 D4 :|
d2 A2 AG F2 | d2 A2 A2 F2 | DEFG A2 B2 | c2 B2 B2 A2 |
d2 A2 AG F2 | d2 A2 A2 F2 | DEFG F2 E2 | D4 D4 :|
